icons/modernweb.svg

<!--
  - The MIT License (MIT)
  -
  - Copyright (c) 2015-2024 Elior "Mallowigi" Boukhobza
  -
  - Permission is hereby granted, free of charge, to any person obtaining a copy
  - of this software and associated documentation files (the "Software"), to deal
  - in the Software without restriction, including without limitation the rights
  - to use, copy, modify, merge, publish, distribute, sublicense, and/or sell
  - copies of the Software, and to permit persons to whom the Software is
  - furnished to do so, subject to the following conditions:
  -
  - The above copyright notice and this permission notice shall be included in all
  - copies or substantial portions of the Software.
  -
  - THE SOFTWARE IS PROVIDED "AS IS", WITHOUT WARRANTY OF ANY KIND, EXPRESS OR
  - IMPLIED, INCLUDING BUT NOT LIMITED TO THE WARRANTIES OF MERCHANTABILITY,
  - FITNESS FOR A PARTICULAR PURPOSE AND NONINFRINGEMENT. IN NO EVENT SHALL THE
  - AUTHORS OR COPYRIGHT HOLDERS BE LIABLE FOR ANY CLAIM, DAMAGES OR OTHER
  - LIABILITY, WHETHER IN AN ACTION OF CONTRACT, TORT OR OTHERWISE, ARISING FROM,
  - OUT OF OR IN CONNECTION WITH THE SOFTWARE OR THE USE OR OTHER DEALINGS IN THE
  - SOFTWARE.
  -
  -->

<svg  version="1.1" xmlns="http://www.w3.org/2000/svg" viewBox="0 0 512 512" width="16px" height="16px">
  <path fill="#2c6fa3" data-iconColor="ModernWeb"
        d="M128.223877,477.3821716C97.4680862,457.656189,353.801239,18.6676903,383.7097168,34.6837845C413.7729187,52.0408478,158.2870941,494.7392578,128.223877,477.3821716z M169.821228,206.4736481c59.5381622-103.5062943,177.7986145-192.6269531,213.8884888-171.789856c-77.5772095-42.2730408-191.1286163,40.462883-250.9730835,140.4228516c-67.1145325,112.1034088-73.4893951,266.164856-4.5127563,302.2755127C93.0330124,450.9332886,116.4754868,299.2145386,169.821228,206.4736481z M383.7097168,34.6837845c40.6054077,44.376709,4.8373413,193.602356-47.0487671,277.568573c-50.2123413,83.6872559-161.0151215,181.8346863-208.4370728,165.1298218c60.2531891,40.6626282,192.7273865-38.1702271,253.3492432-144.486969C437.0856628,235.5390472,466.1587524,87.9871292,383.7097168,34.6837845z M378.9433289,31.5643787C78.8501129-114.6463394-155.8935699,290.1134033,128.223877,477.3821716C-106.4178772,332.811615,133.0700684-91.6028671,378.9433289,31.5643787z M389.1903992,37.4822731c102.3848572,63.2602196,117.7041016,202.6325226,48.2422485,322.944458C377.1621704,463.5684814,256.0104675,546.0137939,128.223877,477.3821716c122.2740936,70.5948181,278.8677979,28.5589294,349.4625549-93.71521C545.8790894,266.2243652,510.4212952,110.8680954,389.1903992,37.4822731z"/>
</svg>

<svg xmlns="http://www.w3.org/2000/svg" viewBox="0 0 512 512"><path fill="#2c6fa3" d="M128.224 477.382C97.468 457.656 353.8 18.668 383.71 34.684c30.063 17.357-225.423 460.055-255.486 442.698m41.597-270.908C229.36 102.967 347.62 13.847 383.71 34.684 306.133-7.59 192.58 75.147 132.737 175.107c-67.115 112.103-73.49 266.164-4.513 302.275-35.191-26.449-11.749-178.167 41.597-270.908M383.71 34.684c40.605 44.376 4.837 193.602-47.05 277.568-50.211 83.688-161.014 181.835-208.436 165.13 60.253 40.663 192.727-38.17 253.35-144.487 55.512-97.356 84.585-244.908 2.136-298.211m-4.767-3.12c-300.093-146.21-534.837 258.55-250.72 445.818-234.64-144.57 4.847-568.985 250.72-445.818m10.247 5.918c102.385 63.26 117.705 202.633 48.243 322.945-60.27 103.141-181.423 185.587-309.21 116.955 122.275 70.595 278.869 28.56 349.463-93.715 68.193-117.443 32.735-272.799-88.496-346.185" data-iconColor="ModernWeb"/></svg>
